!!!CDT:
!!!PTL: Il primo libro de madrigali a cinque voci
!!!PPP: Venice
!!!PPR: Giacomo Vincenzi
!!!PDT: 1593
!!!PUB-format:
!!!RISM: R 442
!!!rime: 862
!!!AGN: Madrigal
!!!SCT: Trm0862a
!!!SCA: Trm0862a
!!!original-voices: 5
!!!extant-voices: 5
!!!complete: Y
!!!final: F
!!!COM: Raval, Sebastiano
!!!OTL: La bella e vaga man che le sonore 
**kern	**text	**kern	**text	**kern	**text	**kern	**text	**kern	**text
*part5	*part5	*part4	*part4	*part3	*part3	*part2	*part2	*part1	*part1
*staff5	*staff5	*staff4	*staff4	*staff3	*staff3	*staff2	*staff2	*staff1	*staff1
*I"Basso	*	*I"Quinto	*	*I"Tenore	*	*I"Alto	*	*I"Canto	*
*I'B	*	*I'V	*	*I'T	*	*I'A	*	*I'C	*
*oclefC4	*	*oclefC3	*	*oclefC3	*	*oclefC2	*	*oclefG2	*
*clefF4	*	*clefGv2	*	*clefGv2	*	*clefG2	*	*clefG2	*
*k[]	*	*k[]	*	*k[]	*	*k[]	*	*k[]	*
*C:	*	*C:	*	*C:	*	*C:	*	*C:	*
*omet(C)	*	*omet(C)	*	*omet(C)	*	*omet(C)	*	*omet(C)	*
*M4/2	*	*M4/2	*	*M4/2	*	*M4/2	*	*M4/2	*
=1	=1	=1	=1	=1	=1	=1	=1	=1	=1
0r	.	0r	.	2r	.	0r	.	2g	La
.	.	.	.	4r	.	.	.	2cc	bel-
.	.	.	.	4c	La	.	.	.	.
.	.	.	.	4f	bel-	.	.	4a	-la e
.	.	.	.	4d	-la e	.	.	2ff	va-
.	.	.	.	4f	va-	.	.	.	.
.	.	.	.	4g	-gha	.	.	8eeL	.
.	.	.	.	.	.	.	.	8ddJ	.
=2	=2	=2	=2	=2	=2	=2	=2	=2	=2
0r	.	0r	.	8aL	man,	0r	.	4cc	.
.	.	.	.	8g	.	.	.	.	.
.	.	.	.	8f	.	.	.	4a	-gha
.	.	.	.	8eJ	.	.	.	.	.
.	.	.	.	4d	.	.	.	2.b	man,
.	.	.	.	8eL	.	.	.	.	.
.	.	.	.	8fJ	.	.	.	.	.
.	.	.	.	2.g	.	.	.	.	.
.	.	.	.	.	.	.	.	8aL	.
.	.	.	.	.	.	.	.	8gJ	.
.	.	.	.	.	.	.	.	2a	.
.	.	.	.	4f	<La	.	.	.	.
=3	=3	=3	=3	=3	=3	=3	=3	=3	=3
0r	.	0r	.	4e	bel-	2c	La	4g	<La
.	.	.	.	4e	-la e	.	.	2cc	bel-
.	.	.	.	4.a	va-	2f	bel-	.	.
.	.	.	.	.	.	.	.	4a	-la e
.	.	.	.	8g	-gha	.	.	.	.
.	.	.	.	8fL	man,>	4d	-la e	4.ff	va-
.	.	.	.	8e	.	.	.	.	.
.	.	.	.	8d	.	2b-X	va-	.	.
.	.	.	.	8cJ	.	.	.	8ee	.
.	.	.	.	4B-X	.	.	.	4dd	.
.	.	.	.	4c	.	8aL	.	8ccL	.
.	.	.	.	.	.	8gJ	.	8bJ	.
=4	=4	=4	=4	=4	=4	=4	=4	=4	=4
0r	.	0r	.	4d	.	4f	.	4a	-gha
.	.	.	.	4B-X	<La	4d	-gha	2dd	man,>
.	.	.	.	2A	bel-	2.e	man,	.	.
.	.	.	.	.	.	.	.	4cc	.
.	.	.	.	4G	-la e	.	.	4.b	.
.	.	.	.	2g	va-	4e	<La	.	.
.	.	.	.	.	.	.	.	16aL	.
.	.	.	.	.	.	.	.	16gJ	.
.	.	.	.	.	.	4c#X	bel-	2a	.
.	.	.	.	8fL	.	4d	-la e	.	.
.	.	.	.	8eJ	.	.	.	.	.
=5	=5	=5	=5	=5	=5	=5	=5	=5	=5
2r	.	2G	La	2d	.	4.B	va-	4g	<La
.	.	.	.	.	.	.	.	4.gg	bel-
.	.	.	.	.	.	8A	-gha	.	.
2C	La	2c	bel-	2e	-gha	4G	man,>	.	.
.	.	.	.	.	.	.	.	8ffL	.
.	.	.	.	.	.	4g	<La	8ee	.
.	.	.	.	.	.	.	.	8ddJ	.
4F	bel-	4A	-la e	2f	man,>	2.a	bel-	4cc	.
4D	-la e	2f	va-	.	.	.	.	4dd	-la e
4F	va-	.	.	2r	.	.	.	4a	va-
4G	-gha	8eL	.	.	.	8gL	.	4b	-gha
.	.	8dJ	.	.	.	8fJ	.	.	.
=6	=6	=6	=6	=6	=6	=6	=6	=6	=6
8AL	man,	4c	.	4r	.	4e	.	2cc	man,>
8G	.	.	.	.	.	.	.	.	.
8F	.	4A	-gha	4c	<La	4f	-la e	.	.
8EJ	.	.	.	.	.	.	.	.	.
4D	.	2.B	man,	4d	bel-	4f	va-	2r	.
8EL	.	.	.	4G	-la e	4e	-gha	.	.
8FJ	.	.	.	.	.	.	.	.	.
2.G	.	.	.	8GL	va-	2d	man,>	2r	.
.	.	.	.	8A	.	.	.	.	.
.	.	4d	<La	8B	.	.	.	.	.
.	.	.	.	8cJ	.	.	.	.	.
.	.	4B	bel-	4d	.	4r	.	2g	<La
4c	<La	4c	-la e	4e	-gha	4g	La	.	.
=7	=7	=7	=7	=7	=7	=7	=7	=7	=7
4.A	bel-	2.c	va-	2e	man,>	4.a	bel-	4cc	bel-
.	.	.	.	.	.	.	.	4a	-la e
8A	-la e	.	.	.	.	8a	-la e	.	.
4A	va-	.	.	2r	.	4a	va-	4cc	va-
4G	-gha	4g	-gha	.	.	4b	-gha	4dd	-gha
2.C	man,>	2g	man,>	2G	<La	2.cc	man,	4ee	man,>
.	.	.	.	.	.	.	.	4gg	<La
.	.	2e	La	2c	bel-	.	.	2ee	bel-
4C	<La	.	.	.	.	4g	<La	.	.
=8	=8	=8	=8	=8	=8	=8	=8	=8	=8
4.F	bel-	4.f	bel-	4A	-la e	4.a	bel-	2cc	-la e
.	.	.	.	2f	va-	.	.	.	.
8F	-la e	8f	-la e	.	.	8a	-la e	.	.
4F	va-	4c	va-	.	.	4a	va-	4a	va-
4G	-gha	4B	-gha	8eL	.	4g	-gha	4b	-gha
.	.	.	.	8dJ	.	.	.	.	.
4A	man,>	2A	man,>	4c	.	2e	man,>	4cc	man,>
4c	<La	.	.	4c	-gha	.	.	4cc	<La
4.B	bel-	2G	<La	2g	man,>	4r	.	4.dd	bel-
.	.	.	.	.	.	4d	<La	.	.
8B	-la e	.	.	.	.	.	.	8dd	-la e
=9	=9	=9	=9	=9	=9	=9	=9	=9	=9
4c	va-	4.g	bel-	2r	.	4e	bel-	4cc	va-
4e	-gha	.	.	.	.	4g	-la e	4b	-gha
.	.	8g	-la e	.	.	.	.	.	.
2d	man,>	4f#X	va-	4r	.	2a	va-	2dd	man,>
.	.	4f#i	-gha	2d	La	.	.	.	.
2G	<La	4g	man,>	.	.	2b	-gha	2r	.
.	.	4d	<La	4.g	bel-	.	.	.	.
2c	bel-	4.e	bel-	.	.	4cc	man,>	2g	<La
.	.	.	.	8f	-la e	.	.	.	.
.	.	.	.	[4e	va-	4g	La	.	.
.	.	8d	-la e	.	.	.	.	.	.
=10	=10	=10	=10	=10	=10	=10	=10	=10	=10
4A	-la e	4c	va-	4e]	.	4.a	bel-	4cc	bel-
2f	va-	4d	-gha	4d	-gha,	.	.	4a	-la e
.	.	.	.	.	.	16gL	.	.	.
.	.	.	.	.	.	16fJ	.	.	.
.	.	2c	man,>	4r	.	2g	.	1cc	va-
8eL	.	.	.	4e	La	.	.	.	.
8dJ	.	.	.	.	.	.	.	.	.
8cL	.	4A	<La	4e	bel-	4a	-la e	.	.
8B	.	.	.	.	.	.	.	.	.
8A	.	2a	bel-	4e	-la e	2cc	va-	.	.
8GJ	.	.	.	.	.	.	.	.	.
4F#X	.	.	.	4.d	va-	.	.	2dd	-gha
4G	-gha	4g	-la e	.	.	4b	-gha	.	.
.	.	.	.	8d	-gha	.	.	.	.
=11	=11	=11	=11	=11	=11	=11	=11	=11	=11
1C	man>	4.g	va-	2.c	man	2.cc	man	2.ee	man>
.	.	8g	-gha	.	.	.	.	.	.
.	.	4g	man>	.	.	.	.	.	.
.	.	4g	che	4c	che	4cc	che	4ee	che
1r	.	8b-X	le	8B-X	le	8dd	le	8ff	le
.	.	8b-i	so-	8B-i	so-	8dd	so-	8ff	so-
.	.	2b-i	-no-	2B-i	-no-	2dd	-no-	2ff	-no-
.	.	4g	-re	4c	-re	4cc	-re	4ee	-re
=12	=12	=12	=12	=12	=12	=12	=12	=12	=12
1r	.	1g	Cor-	2.G	Cor-	1b	Cor-	4dd	Cor-
.	.	.	.	.	.	.	.	8eeL	.
.	.	.	.	.	.	.	.	8ffJ	.
.	.	.	.	.	.	.	.	1gg	.
.	.	.	.	8AL	.	.	.	.	.
.	.	.	.	8BnXiJ	.	.	.	.	.
2r	.	2e	-de,	2c	.	2g	-de,	.	.
2A	che	2e	che	4c	-de,	2a	che	2ee	-de,
.	.	.	.	4c	<che	.	.	.	.
=13	=13	=13	=13	=13	=13	=13	=13	=13	=13
8E	le	8g#X	le	8e	le	8b	le	1r	.
8E	so-	8g#i	so-	8e	so-	8b	so-	.	.
2E	-no-	2g#i	-no-	2e	-no-	2b	-no-	.	.
4A	-re	4a	-re	4e	-re	4cc	-re	.	.
2G	Cor-	2d	Cor-	2g	Cor-	2b	Cor-	2r	.
4G	-de,	4d	-de,	4g	-de,>	4b	-de,	2gg	<che
4c	<che	4e	<che	4g	<che	4cc	<che	.	.
=14	=14	=14	=14	=14	=14	=14	=14	=14	=14
8F	le	8c	le	8f	le	8cc	le	8aa	le
8F	so-	8c	so-	8f	so-	8cc	so-	8aa	so-
2F	-no-	2f	-no-	2a	-no-	2cc	-no-	2aa	-no-
4f	-re	4f	-re	4a	-re	4cc	-re	4aa	-re
2B-X	Cor-	2d	Cor-	2b-X	Cor-	2dd	Cor-	2ff	Cor-
2c	-de,>	2e	-de>	2g	-de>	2cc	-de,	2ee	-de,>
=15	=15	=15	=15	=15	=15	=15	=15	=15	=15
4F	Hor	0r	.	0r	.	4cc	hor	4ff	hor
4G	leg-	.	.	.	.	4b	leg-	4dd	leg-
4.C	-gie-	.	.	.	.	4.cc	-gie-	4.ee	-gie-
8D	.	.	.	.	.	16bL	.	16ddL	.
.	.	.	.	.	.	16aJ	.	16ccJ	.
8EL	.	.	.	.	.	4.g	.	4.b	.
8FJ	.	.	.	.	.	.	.	.	.
4.G	.	.	.	.	.	.	.	.	.
.	.	.	.	.	.	8a	.	8cc	.
.	.	.	.	.	.	4.b-X	.	4.dd	.
16FL	.	.	.	.	.	.	.	.	.
16EJ	.	.	.	.	.	.	.	.	.
[4D	.	.	.	.	.	.	.	.	.
.	.	.	.	.	.	16aL	.	16ccL	.
.	.	.	.	.	.	16gJ	.	16bJ	.
=16	=16	=16	=16	=16	=16	=16	=16	=16	=16
8D]L	.	1r	.	1r	.	4.f	.	4.a	.
8EJ	.	.	.	.	.	.	.	.	.
4.F	.	.	.	.	.	.	.	.	.
.	.	.	.	.	.	8g	.	8b	.
.	.	.	.	.	.	8aL	.	8ccL	.
16EL	.	.	.	.	.	8bnXi	.	8dd	.
16DJ	.	.	.	.	.	.	.	.	.
4C	.	.	.	.	.	8cc	.	8ee	.
.	.	.	.	.	.	8aJ	.	8ccJ	.
2G	-ra	2r	.	2r	.	2b	.	4dd	-ra
.	.	.	.	.	.	.	.	4dd	e
2r	.	2c	e	2e	e	2cc	-ra	4ee	pre-
.	.	.	.	.	.	.	.	[4gg	.
=17	=17	=17	=17	=17	=17	=17	=17	=17	=17
2r	.	4.e	pre-	4.g	pre-	4c	e	8gg]L	.
.	.	.	.	.	.	.	.	8ffJ	.
.	.	.	.	.	.	4.e	pre-	4.ee	.
.	.	8d	.	8f	.	.	.	.	.
2C	e	4.c	.	4.e	.	.	.	.	.
.	.	.	.	.	.	8f	.	8dd	.
.	.	.	.	.	.	4g	-sta,	4.cc	.
.	.	8B	.	8d	.	.	.	.	.
4.F	pre-	4.A	.	4c	.	4a	<e	.	.
.	.	.	.	.	.	.	.	8b	.
.	.	.	.	4f	-sta,	4.cc	pre-	4.a	.
8G	.	8B	.	.	.	.	.	.	.
4.A	.	4.c	.	[2e	pre-	.	.	.	.
.	.	.	.	.	.	8b	.	8b	.
.	.	.	.	.	.	4a	.	[4cc	.
8B	.	8d	.	.	.	.	.	.	.
=18	=18	=18	=18	=18	=18	=18	=18	=18	=18
4c	.	4.e	.	4e]	.	4g	-sta,>	8cc]L	.
.	.	.	.	.	.	.	.	8ddJ	.
4c	-sta,	.	.	4A	-sta,	2cc	pre-	4.ee	.
.	.	8f	.	.	.	.	.	.	.
4.C	pre-	4g	.	4.e	<pre-	.	.	.	.
.	.	.	.	.	.	.	.	8ff	.
.	.	4g	-sta,	.	.	4cc	-sta,	2gg	.
8D	.	.	.	8f	.	.	.	.	.
4.E	.	4.G	pre-	4g	.	2.b	pre-	.	.
.	.	.	.	4g	.	.	.	4gg	-sta,
8F	.	8A	.	.	.	.	.	.	.
[2G	.	4.B	.	4.d	.	.	.	4gg	e
.	.	.	.	.	.	4b	-sta,	[4dd	pre-
.	.	8c	.	8c	.	.	.	.	.
=19	=19	=19	=19	=19	=19	=19	=19	=19	=19
4G]	.	4.d	.	4.B	.	2g	pre-	4dd]	.
4G	-sta,	.	.	.	.	.	.	4dd	-st'hor
.	.	8d	-sta,	8B	-sta,	.	.	.	.
2C	pre-	4c	pre-	4G	pre-	2g	-st'hor	4ee	tar-
.	.	4e	-st'hor	4c	-st'hor	.	.	4ee	-da e
1F	-st'hor	[1f	tar-	[1A	tar-	[1a	tar-	[1cc	gra-
=20	=20	=20	=20	=20	=20	=20	=20	=20	=20
1.F	tar-	1f]	.	1A]	.	2a]	.	2cc]	.
.	.	.	.	.	.	2b	.	2b	.
.	.	[1f	-da e	1A	-da e	1cc	.	1a	.
2E	.	.	.	.	.	.	.	.	.
=21	=21	=21	=21	=21	=21	=21	=21	=21	=21
*	*	*	*	*	*	*lig	*	*	*
0D	.	2f]	.	1.d	gra-	1f	-da e	1.ff	.
.	.	2e	.	.	.	.	.	.	.
.	.	[1d	.	.	.	1a	.	.	.
*	*	*	*	*	*	*Xlig	*	*	*
.	.	.	.	2c	.	.	.	2ee	.
=22	=22	=22	=22	=22	=22	=22	=22	=22	=22
1.G	-da e	2d]	.	1B	.	0b	gra-	1dd	.
.	.	2c	.	.	.	.	.	.	.
.	.	1B	.	1d	-ve,	.	.	[1gg	.
2F	.	.	.	.	.	.	.	.	.
=23	=23	=23	=23	=23	=23	=23	=23	=23	=23
1E	.	1g	gra-	1.e	tar-	1b	-ve,	2gg]	.
.	.	.	.	.	.	.	.	2ff	.
[1A	gra-	1a	-ve,	.	.	[1cc	tar-	1ee	.
.	.	.	.	2d	.	.	.	.	.
=24	=24	=24	=24	=24	=24	=24	=24	=24	=24
2A]	.	1e	tar-	1c	.	2cc]	.	1.gg	.
2G	.	.	.	.	.	2b	.	.	.
[1F	.	1A	-da e	[1f	-da e	2a	.	.	.
.	.	.	.	.	.	2b	.	2gg	.
=25	=25	=25	=25	=25	=25	=25	=25	=25	=25
1F]	.	2a	gra-	2f]	.	1cc	.	1.ff	.
.	.	2g	.	2e	.	.	.	.	.
[1B-X	-ve	[1f	.	1d	.	[1dd	.	.	.
.	.	.	.	.	.	.	.	2ee	.
=26	=26	=26	=26	=26	=26	=26	=26	=26	=26
2B-]	.	1f]	.	1.d	gra-	2dd]	.	1.dd	.
2A	.	.	.	.	.	2cc	.	.	.
[1G	.	[1g	-ve	.	.	2b	-da e	.	.
.	.	.	.	2e	.	[2cc	gra-	2cc	.
=27	=27	=27	=27	=27	=27	=27	=27	=27	=27
1G]	.	1g]	.	1d	-ve	2cc]	.	1dd	-ve
.	.	.	.	.	.	2b	-ve	.	.
1r	.	1r	.	2c	Per-	2g	Per-	1r	.
.	.	.	.	[2f	-cuo-	4a	-cuo-	.	.
.	.	.	.	.	.	4f	-te e	.	.
=28	=28	=28	=28	=28	=28	=28	=28	=28	=28
0r	.	2r	.	4f]	.	8aL	son,	2r	.
.	.	.	.	.	.	8b	.	.	.
.	.	.	.	4f	-te e	8cc	.	.	.
.	.	.	.	.	.	8aJ	.	.	.
.	.	2G	Per-	8gL	son	8bL	.	2dd	Per-
.	.	.	.	8a	.	8a	.	.	.
.	.	.	.	8b-X	.	8g	.	.	.
.	.	.	.	8aJ	.	8fJ	.	.	.
.	.	2.c	-cuo-	4.g	.	4e	Per-	4ee	-cuo-
.	.	.	.	.	.	4e	-cuo-	4cc	-te e
.	.	.	.	8f	.	.	.	.	.
.	.	.	.	8eL	.	4cc	-te e	8eeL	son
.	.	.	.	8dJ	.	.	.	8ff	.
.	.	4e	-te e	4c	.	4cc	son	8gg	.
.	.	.	.	.	.	.	.	8eeJ	.
=29	=29	=29	=29	=29	=29	=29	=29	=29	=29
1r	.	8dL	son	2d	ne	4a	ne	8ffL	.
.	.	8e	.	.	.	.	.	8ee	.
.	.	8f	.	.	.	4a	tra-	8dd	.
.	.	8eJ	.	.	.	.	.	8ccJ	.
.	.	8dL	.	4G	tra-	2dd	-he	4b	.
.	.	8e	.	.	.	.	.	.	.
.	.	8f	.	4d	-he	.	.	4a	.
.	.	8gJ	.	.	.	.	.	.	.
2.D	va-	4a	ne	4r	.	4r	.	4.ff	ne
.	.	2d	tra-	2f	va-	2a	va-	.	.
.	.	.	.	.	.	.	.	8ee	.
.	.	.	.	.	.	.	.	4dd	tra-
[4A	-rio e	4c	-he,	4e	-rio e	[4cc	-rio e	4ee	-he,
=30	=30	=30	=30	=30	=30	=30	=30	=30	=30
4A]	.	1r	.	4f#X	so-	4cc]	.	1r	.
4B	so-	.	.	2g	-a-	4b	so-	.	.
2c#X	-a-	.	.	.	.	1a	-a-	.	.
.	.	.	.	8f#XL	.	.	.	.	.
.	.	.	.	8eJ	.	.	.	.	.
2d	-ve,	2r	.	2f#X	.	.	.	2r	.
2r	.	2G	<e	2g	-ve,	4b	-ve,	2dd	<e
.	.	.	.	.	.	4b	Per-	.	.
=31	=31	=31	=31	=31	=31	=31	=31	=31	=31
2G	Per-	4.d	son	4r	.	2b	-cuo-	2.dd	son
.	.	.	.	4g	Per-	.	.	.	.
.	.	8e	.	.	.	.	.	.	.
4.d	-cuo-	2.f	.	4a	-cuo-	2a	-te e	.	.
.	.	.	.	4fnXi	-te e	.	.	4dd	ne
8e	-te e	.	.	.	.	.	.	.	.
4f	son	.	.	4a	son	4.a	son	4cc	tra-
4d	ne	4f	ne	4f	ne	.	.	4dd	.
.	.	.	.	.	.	8b	ne	.	.
[2cnXi	tra-	[2g	tra-	[2e	tra-	[2cc	tra-	[2ee	-he>
=32	=32	=32	=32	=32	=32	=32	=32	=32	=32
2c]	.	2g]	.	2e]	.	2cc]	.	2ee]	.
2c	-he	2g	-he>	2e	-he	2cc	-he	2ee	va-
4B-X	va-	4b-X	va-	4d	va-	4dd	va-	4ff	-rio e
4c	-rio e	4g	-rio e	4e	-rio e	8ccL	-rio e	4ee	so-
.	.	.	.	.	.	8bJ	.	.	.
[2F	so-	2f	so-	4.A	so-	[2a	.	2cc	-a-
.	.	.	.	8B	.	.	.	.	.
=33	=33	=33	=33	=33	=33	=33	=33	=33	=33
4F]	.	2f	-a-	1.c	-a-	4a]	.	2.cc	-ve,
8EL	.	.	.	.	.	8gL	.	.	.
8DJ	.	.	.	.	.	8fJ	.	.	.
1C	-a-	4g	-ve,	.	.	4e	.	.	.
.	.	2f	so-	.	.	4a	so-	4cc	so-
.	.	.	.	.	.	2g	-a-	2cc	-a-
.	.	4e	-a-	.	.	.	.	.	.
2F	-ve,	2f	-ve,	2c	-ve,	4a	-ve,	2cc	-ve,
.	.	.	.	.	.	[4f	E'l	.	.
=34	=34	=34	=34	=34	=34	=34	=34	=34	=34
0r	.	0r	.	0r	.	4f]	.	2cc	E'l
.	.	.	.	.	.	2a	dol-	.	.
.	.	.	.	.	.	.	.	2.ee	dol-
.	.	.	.	.	.	8g#XL	.	.	.
.	.	.	.	.	.	8f#iJ	.	.	.
.	.	.	.	.	.	4g#X	.	.	.
.	.	.	.	.	.	4a	-ce	4ee	-ce
.	.	.	.	.	.	8dL	can-	[2ff	can-
.	.	.	.	.	.	8e	.	.	.
.	.	.	.	.	.	8fnXi	.	.	.
.	.	.	.	.	.	8gnXJ	.	.	.
=35	=35	=35	=35	=35	=35	=35	=35	=35	=35
1r	.	1r	.	1r	.	8aL	.	4ff]	.
.	.	.	.	.	.	8bJ	.	.	.
.	.	.	.	.	.	2cc	.	4ee	-to
.	.	.	.	.	.	.	.	2dd	tuo
.	.	.	.	.	.	4b	-to	.	.
2r	.	2r	.	2r	.	4cc	tuo	4ee	che
.	.	.	.	.	.	4b	che	2gg	for-
4r	.	4r	.	[2e	E'l	4cc	for-	.	.
[4A	E'l	[4c	E'l	.	.	4cc	-m'a-	4ee	-m'a-
=36	=36	=36	=36	=36	=36	=36	=36	=36	=36
4A]	.	4c]	.	2e]	.	4a	-mo-	4cc	-mo-
2c	dol-	2e	dol-	.	.	4g	-re,	4cc	-re,
.	.	.	.	2.g	dol-	2r	.	2r	.
8BL	.	8dL	.	.	.	.	.	.	.
8AJ	.	8cJ	.	.	.	.	.	.	.
4B	.	4d	.	.	.	1r	.	1r	.
4c	-ce	4e	-ce	4g	-ce	.	.	.	.
8FL	can-	2f	can-	[2a	can-	.	.	.	.
8G	.	.	.	.	.	.	.	.	.
8A	.	.	.	.	.	.	.	.	.
8BJ	.	.	.	.	.	.	.	.	.
=37	=37	=37	=37	=37	=37	=37	=37	=37	=37
4.c	.	2e	-to	4a]	.	4r	.	4r	.
.	.	.	.	4g	-to	2e	E'l	2cc	E'l
8B	.	.	.	.	.	.	.	.	.
4A	.	2c	tuo,	2a	tuo,	.	.	.	.
4F	-to	.	.	.	.	2a	dol-	2ff	dol-
2.c	tuo	2r	.	1r	.	.	.	.	.
.	.	.	.	.	.	8gL	.	8eeL	.
.	.	.	.	.	.	8fJ	.	8ddJ	.
.	.	2c	<E'l	.	.	4g	.	4ee	.
4F	che	.	.	.	.	[4a	-ce	4ff	-ce
=38	=38	=38	=38	=38	=38	=38	=38	=38	=38
4A	for-	2c	dol-	1r	.	4a]	.	8ccL	can-
.	.	.	.	.	.	.	.	8dd	.
4A	-m'a-	.	.	.	.	2cc	can-	8ee	.
.	.	.	.	.	.	.	.	8ffJ	.
2G	-mo-	2d	-ce	.	.	.	.	2.gg	.
.	.	.	.	.	.	4b	-to	.	.
4D	-re,	[1d	can-	2A	E'l	1dd	tuo,	.	.
4D	E'l	.	.	.	.	.	.	4ff#X	-to
[2G	dol-	.	.	[2B	dol-	.	.	2gg	tuo,
=39	=39	=39	=39	=39	=39	=39	=39	=39	=39
4G]	.	2d]	.	4B]	.	2r	.	2dd	<E'l
8F#XL	.	.	.	8AL	.	.	.	.	.
8EJ	.	.	.	8GJ	.	.	.	.	.
4F#X	.	2d	-to	4A	.	4r	.	2dd	dol-
4G	-ce	.	.	4B	-ce	4g	E'l	.	.
8CL	can-	4e	tuo>	2c	can-	2.g	dol-	4cc	-ce
8D	.	.	.	.	.	.	.	.	.
8E	.	4e	che	.	.	.	.	2gg	can-
8FnXiJ	.	.	.	.	.	.	.	.	.
4G	.	4d	for-	4B	-to	.	.	.	.
4C	-to	4e	-m'a-	4c	tuo	4g	-ce	4ee	-to
=40	=40	=40	=40	=40	=40	=40	=40	=40	=40
4F	tuo	2c	-mo-	4A	che	4.a	can-	4ff	tuo>
4F	che	.	.	2a	for-	.	.	4ff	che
.	.	.	.	.	.	8b	.	.	.
4.A	for-	2c	-re,	.	.	4cc	.	2.ee	for-
.	.	.	.	4e	-m'a-	4cc	-to	.	.
8B	.	.	.	.	.	.	.	.	.
4c	.	2r	.	2e	-mo-	2.g	tuo	.	.
8BL	.	.	.	.	.	.	.	8ddL	.
8AJ	.	.	.	.	.	.	.	8ccJ	.
4G	.	4r	.	2e	-re,	.	.	4b	.
4A	-ma,	4c	che	.	.	4e	che	4cc	-m'a-
=41	=41	=41	=41	=41	=41	=41	=41	=41	=41
4F	che	2c	for-	2r	.	4a	for-	8ccL	-mo-
.	.	.	.	.	.	.	.	8dd	.
8EL	for-	.	.	.	.	8gL	.	8ee	.
8DJ	.	.	.	.	.	8fJ	.	8ffJ	.
4C	.	4c	-ma,	4r	.	4e	.	4gg	.
4D	-m'a-	4A	che	4d	che	4f	-ma,	4ff	-re,
[1C	-mo-	4c	for-	2e	for-	2g	che	2ee	<che
.	.	8BL	.	.	.	.	.	.	.
.	.	8AJ	.	.	.	.	.	.	.
.	.	2G	.	[2e	-m'a-	4cc	for-	[2ee	for-
.	.	.	.	.	.	8bL	.	.	.
.	.	.	.	.	.	8aJ	.	.	.
=42	=42	=42	=42	=42	=42	=42	=42	=42	=42
1C]	.	2c	-m'a-	4e]	.	4g	.	4ee]	.
.	.	.	.	4.f	-mo-	4a	-m'a-	4cc	-m'a-
.	.	1c	-mo-	.	.	2g	-mo-	2cc	-mo-
.	.	.	.	16eL	.	.	.	.	.
.	.	.	.	16dJ	.	.	.	.	.
.	.	.	.	4e	.	.	.	.	.
1F	-re,	.	.	1f	-re,	1a	-re,	1cc	-re,>
.	.	2c	-re,	.	.	.	.	.	.
=43	=43	=43	=43	=43	=43	=43	=43	=43	=43
0r	.	1r	.	2c	Per-	2g	Per-	1r	.
.	.	.	.	2.f	-cuo-	4a	-cuo-	.	.
.	.	.	.	.	.	4f	-te e	.	.
.	.	2r	.	.	.	8aL	son,	2r	.
.	.	.	.	.	.	8b	.	.	.
.	.	.	.	4f	-te e	8cc	.	.	.
.	.	.	.	.	.	8aJ	.	.	.
.	.	2G	Per-	8gL	son	8bL	.	2dd	Per-
.	.	.	.	8a	.	8a	.	.	.
.	.	.	.	8b-X	.	8g	.	.	.
.	.	.	.	8aJ	.	8fJ	.	.	.
=44	=44	=44	=44	=44	=44	=44	=44	=44	=44
0r	.	2.c	-cuo-	4.g	.	4e	Per-	4ee	-cuo-
.	.	.	.	.	.	4e	-cuo-	4cc	-te e
.	.	.	.	8f	.	.	.	.	.
.	.	.	.	8eL	.	4cc	-te e	8eeL	son
.	.	.	.	8dJ	.	.	.	8ff	.
.	.	4e	-te e	4c	.	4cc	son	8gg	.
.	.	.	.	.	.	.	.	8eeJ	.
.	.	8dL	son	2d	ne	4a	ne	8ffL	.
.	.	8e	.	.	.	.	.	8ee	.
.	.	8f	.	.	.	4a	tra-	8dd	.
.	.	8eJ	.	.	.	.	.	8ccJ	.
.	.	8dL	.	4G	tra-	2dd	-he	4b	.
.	.	8e	.	.	.	.	.	.	.
.	.	8f	.	4d	-he	.	.	4a	.
.	.	8gJ	.	.	.	.	.	.	.
=45	=45	=45	=45	=45	=45	=45	=45	=45	=45
2.D	va-	4a	ne	4r	.	4r	.	4.ff	ne
.	.	2d	tra-	2f	va-	2a	va-	.	.
.	.	.	.	.	.	.	.	8ee	.
.	.	.	.	.	.	.	.	4dd	tra-
2A	-rio e	4c	-he,	4e	-rio e	2cc	-rio e	4ee	-he,
.	.	1r	.	4f#X	so-	.	.	1r	.
4B	so-	.	.	2g	-a-	4b	so-	.	.
2c#X	-a-	.	.	.	.	[2a	-a-	.	.
.	.	.	.	8f#XL	.	.	.	.	.
.	.	.	.	8eJ	.	.	.	.	.
=46	=46	=46	=46	=46	=46	=46	=46	=46	=46
2d	-ve,	2r	.	2f#X	.	2a]	.	2r	.
2r	.	2G	<Per-	2g	-ve,	4b	-ve,	2dd	<e
.	.	.	.	.	.	4b	Per-	.	.
2G	Per-	4.d	-cuo-	4r	.	2b	-cuo-	2.dd	son
.	.	.	.	4g	Per-	.	.	.	.
.	.	8e	-te e	.	.	.	.	.	.
4.d	-cuo-	[2f	son	4a	-cuo-	2a	-te e	.	.
.	.	.	.	4fnXi	-te e	.	.	4dd	ne
8e	-te e	.	.	.	.	.	.	.	.
=47	=47	=47	=47	=47	=47	=47	=47	=47	=47
4f	son	4f]	.	4a	son	4.a	son	4cc	tra-
4d	ne	4f	ne	4f	ne	.	.	4dd	.
.	.	.	.	.	.	8b	ne	.	.
1c	tra-	1g	tra-	1e	tra-	1cc	tra-	1ee	-he
2c	-he	2g	-he>	2e	-he	2cc	-he	2ee	va-
=48	=48	=48	=48	=48	=48	=48	=48	=48	=48
4B-X	va-	4b-X	va-	4d	va-	4dd	va-	4ff	-rio e
4c	-rio e	4g	-rio e	4e	-rio e	8ccL	-rio e	4ee	so-
.	.	.	.	.	.	8bJ	.	.	.
2.F	so-	2f	so-	4.A	so-	2.a	.	2cc	-a-
.	.	.	.	8B	.	.	.	.	.
.	.	2f	-a-	[1c	-a-	.	.	2.cc	-ve,
8EL	.	.	.	.	.	8gL	.	.	.
8DJ	.	.	.	.	.	8fJ	.	.	.
[2C	-a-	4g	-ve,	.	.	4e	.	.	.
.	.	[4f	so-	.	.	4a	so-	4cc	so-
=49	=49	=49	=49	=49	=49	=49	=49	=49	=49
2C]	.	4f]	.	2c]	.	2g	-a-	2cc	-a-
.	.	4e	-a-	.	.	.	.	.	.
2F	-ve,	2f	-ve,	2c	-ve,	4a	-ve,	2cc	-ve,
.	.	.	.	.	.	2f	E'l	.	.
1r	.	1r	.	1r	.	.	.	2cc	E'l
.	.	.	.	.	.	2a	dol-	.	.
.	.	.	.	.	.	.	.	[2ee	dol-
.	.	.	.	.	.	8g#XL	.	.	.
.	.	.	.	.	.	8f#iJ	.	.	.
=50	=50	=50	=50	=50	=50	=50	=50	=50	=50
0r	.	0r	.	0r	.	4g#X	.	4ee]	.
.	.	.	.	.	.	4a	-ce	4ee	-ce
.	.	.	.	.	.	8dL	can-	2.ff	can-
.	.	.	.	.	.	8e	.	.	.
.	.	.	.	.	.	8fnXi	.	.	.
.	.	.	.	.	.	8gnXiJ	.	.	.
.	.	.	.	.	.	8aL	.	.	.
.	.	.	.	.	.	8bJ	.	.	.
.	.	.	.	.	.	2cc	.	4ee	-to
.	.	.	.	.	.	.	.	2dd	tuo
.	.	.	.	.	.	4b	-to	.	.
=51	=51	=51	=51	=51	=51	=51	=51	=51	=51
2r	.	2r	.	2r	.	4cc	tuo	4ee	che
.	.	.	.	.	.	4b	che	2gg	for-
4r	.	4r	.	1e	E'l	4cc	for-	.	.
2A	E'l	2c	E'l	.	.	4cc	-m'a-	4ee	-m'a-
.	.	.	.	.	.	4a	-mo-	4cc	-mo-
2c	dol-	2e	dol-	.	.	4g	-re,	4cc	-re,
.	.	.	.	[2g	dol-	2r	.	2r	.
8BL	.	8dL	.	.	.	.	.	.	.
8AJ	.	8cJ	.	.	.	.	.	.	.
=52	=52	=52	=52	=52	=52	=52	=52	=52	=52
4B	.	4d	.	4g]	.	1r	.	1r	.
4c	-ce	4e	-ce	4g	-ce	.	.	.	.
8FL	can-	2f	can-	2.a	can-	.	.	.	.
8G	.	.	.	.	.	.	.	.	.
8A	.	.	.	.	.	.	.	.	.
8BJ	.	.	.	.	.	.	.	.	.
4.c	.	2e	-to	.	.	4r	.	4r	.
.	.	.	.	4g	-to	2e	E'l	2cc	E'l
8B	.	.	.	.	.	.	.	.	.
4A	.	2c	tuo,	2a	tuo,	.	.	.	.
4F	-to	.	.	.	.	[4a	dol-	[4ff	dol-
=53	=53	=53	=53	=53	=53	=53	=53	=53	=53
2.c	tuo	2r	.	0r	.	4a]	.	4ff]	.
.	.	.	.	.	.	8gL	.	8eeL	.
.	.	.	.	.	.	8fJ	.	8ddJ	.
.	.	2c	<E'l	.	.	4g	.	4ee	.
4F	che	.	.	.	.	2a	-ce	4ff	-ce
4A	for-	2c	dol-	.	.	.	.	8ccL	can-
.	.	.	.	.	.	.	.	8dd	.
4A	-m'a-	.	.	.	.	2cc	can-	8ee	.
.	.	.	.	.	.	.	.	8ffJ	.
2G	-mo-	2d	-ce	.	.	.	.	[2gg	.
.	.	.	.	.	.	4b	-to	.	.
=54	=54	=54	=54	=54	=54	=54	=54	=54	=54
4D	-re,	1.d	can-	2A	<E'l	1dd	tuo,	4gg]	.
4D	E'l	.	.	.	.	.	.	4ff#X	-to
2.G	dol-	.	.	2.B	dol-	.	.	2gg	tuo,
.	.	.	.	.	.	2r	.	2dd	<E'l
8F#XL	.	.	.	8AL	.	.	.	.	.
8EJ	.	.	.	8GJ	.	.	.	.	.
4F#X	.	2d	-to	4A	.	4r	.	2dd	dol-
4G	-ce	.	.	4B	-ce	4g	<E'l	.	.
=55	=55	=55	=55	=55	=55	=55	=55	=55	=55
8CL	can-	4e	tuo>	2c	can-	2.g	dol-	4cc	-ce
8D	.	.	.	.	.	.	.	.	.
8E	.	4e	che	.	.	.	.	2gg	can-
8FnXiJ	.	.	.	.	.	.	.	.	.
4G	.	4d	for-	4B	-to	.	.	.	.
4C	-to	4e	-m'a-	4c	tuo>	4g	-ce	4ee	-to
4F	tuo	2c	-mo-	4A	che	4.a	can-	4ffnXi	tuo>
4F	che	.	.	2a	for-	.	.	4ff	che
.	.	.	.	.	.	8b	-to	.	.
4.A	for-	2c	-re,	.	.	4cc	tuo>	[2ee	for-
.	.	.	.	4e	-m'a-	4cc	che	.	.
8B	.	.	.	.	.	.	.	.	.
=56	=56	=56	=56	=56	=56	=56	=56	=56	=56
4c	.	2r	.	2e	-mo-	2.g	for-	4ee]	.
8BL	.	.	.	.	.	.	.	8ddL	.
8AJ	.	.	.	.	.	.	.	8ccJ	.
4G	-ma,	4r	.	2e	-re,	.	.	4b	.
4A	che	4c	che	.	.	4e	-m'a-	4cc	-m'a-
4F	for-	2c	for-	2r	.	4a	-mo-	8ccL	-mo-
.	.	.	.	.	.	.	.	8dd	.
8EL	.	.	.	.	.	8gL	.	8ee	.
8DJ	.	.	.	.	.	8fJ	.	8ffJ	.
4C	.	4c	-ma,	4r	.	4e	.	4gg	.
4D	-m'a-	4A	che	4d	che	4f	-re,	4ff	-re,
=57	=57	=57	=57	=57	=57	=57	=57	=57	=57
0C	-mo-	4c	for-	2e	for-	2g	che	2ee	che
.	.	8BL	.	.	.	.	.	.	.
.	.	8AJ	.	.	.	.	.	.	.
.	.	2G	.	2.e	-m'a-	4cc	for-	2.ee	for-
.	.	.	.	.	.	8bL	.	.	.
.	.	.	.	.	.	8aJ	.	.	.
.	.	2c	-m'a-	.	.	4g	.	.	.
.	.	.	.	4.f	-mo-	4a	-m'a-	4cc	-m'a-
.	.	2c	-mo-	.	.	2g	-mo-	2cc	-mo-
.	.	.	.	16eL	.	.	.	.	.
.	.	.	.	16dJ	.	.	.	.	.
.	.	.	.	4e	.	.	.	.	.
=58	=58	=58	=58	=58	=58	=58	=58	=58	=58
0Fl	-re.	0cl	-re.	0fl	-re.	0al	-re.	0ccl	-re.
==	==	==	==	==	==	==	==	==	==
*-	*-	*-	*-	*-	*-	*-	*-	*-	*-
!!!system-decoration: [*]
!!!RDF**kern: i = editorial accidental
!!!RDF**kern: l = terminal long
!!!ENC: Emiliano Ricciardi
!!!END: 2019
!!!EED: Ricciardi, Emiliano
!!!EEV: 2019/06/22
!!!YEC: Copyright 2018 Emiliano Ricciardi, All Rights Reserved
!!!ONB: Translated from MusicXML on 2019/06/22
!!@@BEGIN:	VERSEDATA
!!@SOLERTI:	862
!!@CATALOGNUM:	Trm0862
!!@LAST_MODIFIED: 2020/07/12
!!@TITLE:		La bella e vaga man che le sonore
!!@GENRE:		sonetto
!!@MANUSRC:	Ts<sub>2</sub>, VE<sub>3</sub>
!!@PRINTSRC:	22, 26, 31, 36, 40, 50a), 69, 141, 166, 169
!!@@BEGIN:	VERSES
!!@ABOUTIT:	[Loda la signora Vittoria Castellini]
!!@ABOUTEN:	[He praises lady Vittoria Castellini]
!!@EDITOR:	Solerti, Angelo
!!@EDITION_TITLE: Le Rime di Torquato Tasso
!!@EDITION_LOC:	Bologna
!!@EDITION_PUB:	Romagnoli-Dall’Acqua
!!@EDITION_DATE:  1898-1902
!!@EDITION_VOL:	3
!!@EDITION_PAGE:  410
!!@TRANSLATOR:	Emiliano Ricciardi and Amyrose McCue Gill
!!@VERSE:
!!	La bella e vaga man che le sonore
!!	Corde, or leggiera e presta, or tarda e grave
!!	Percuote, e suon ne trae vario e soave,
!!	E 'l dolce canto tuo, che forma Amore,
!!@VERSE:
!!	Son l'armi dolci onde piagato è il core
!!	In guisa tal che di morir non pave;
!!	Ma vago fatto di languir, sol have
!!	Di risanar, quasi di mal, timore.
!!@VERSE:
!!	Onde per languir sempre, or questa piaga
!!	Ed or quell'altra col pensier rinnova,
!!	Vera Vittoria e vera vincitrice,
!!@VERSE:
!!	Che rende l'alma di penar sì vaga
!!	Che quel ch'altrui più nuoce a lei più giova,
!!	Ne' sospir lieta e ne' martir felice.
!!@TVERSE:
!!	Your beautiful and fair hand, which strikes the sonorous
!!	Strings, now light and fast, now slow and sombre,
!!	And draws from them a varied and pleasing sound;
!!	And your sweet singing, which Love shapes.
!!@TVERSE:
!!	These are the sweet weapons by which my heart is wounded
!!	In such a way that it does not fear death;
!!	But, made weak with languishing, it has but
!!	To heal, as if from an illness, fear.
!!@TVERSE:
!!	Since in order to languish forever, now this wound
!!	And now that one with a thought she must mend,
!!	True Victory and true victorious woman,
!!@TVERSE:
!!	Who brings the soul such sweet pain
!!	That that which for others does more harm, for her does more good,
!!	In contented sighing and happy sacrifice.
!!@@END: VERSES
!!@OTHER_CRIT_ED:   None
!!@ATTRIBUTION_ABOUT:Secure
!!		<br>
!!		Among other sources (see Literary Sources), this poem survives in a copy with Tasso's autograph annotations of the print <i>Rime et prose del Signor Torquato Tasso. Parte terza. Novamente poste in luce</i>
!!(Venetia: Giulio Vasalini, 1583)
!!@DATING:	In or before 1583
!!@DEDICATEE:	Castellini, Vittoria
!!@COMMENTARY:
!!@@END:		VERSEDATA
!!@@BEGIN:	SETTING
!!@CATALOGNUM:	Trm0862a
!!@RIMETITLE:	La bella e vaga man che le sonore 
!!@SETTINGTITLE: La bella e vagha man che le sonore
!!@SOLERTI:	862
!!@COMPOSER:	Raval, Sebastiano
!!@PRINCEPSTITLE:	Il primo libro de madrigali a cinque voci
!!@PRINCEPSLOC:	Venice
!!@NORMLOC:	Venice
!!@NORMPUB:	Giacomo Vincenzi
!!@NORMPUBSHORT:	G. Vincenzi
!!@PRINCEPSPUB:	Vincenti
!!@PRINCEPSYEAR:	1593
!!@PRINCEPSRISM:	R 442
!!@REPRINTS:	
!!@OVOICES:	5
!!@EXTANTVOICES:	5
!!@PARTBOOKS:	
!!@EXTPARTBOOKS:	
!!@OCLEFS:	G2,C2,C3,C3,C4
!!@OMENSURATION:	C
!!@OKEYSIG:	-
!!@FINAL:	F
!!@TIMPEDITOR:	Ricciardi, Emiliano
!!@NOTE:		
!!@@END:		SETTING
